X:1
T:The Battle of Otterburn
M:3/4
L:1/8
K:F
 C| DE F2 F2| GA C3 A/2A/2| B3/2- A/2 B3/2- A/2 Bc| d2 z2f-d| cA A2 GF|\
 Bc d2 z f| c3/2 A/2 A2G-F| G3/2 F/2 F2 z||
